svg/color/gas.svg

<svg height="32" width="32" xmlns="http://www.w3.org/2000/svg"><linearGradient id="a" x1="53856%" x2="53856%" y1="-3432%" y2="77792%"><stop offset="0" stop-color="#58bf00"/><stop offset=".23" stop-color="#58bf00"/><stop offset=".42" stop-color="#58bf00"/><stop offset=".61" stop-color="#29b800"/><stop offset=".78" stop-color="#00ae1d"/><stop offset=".99" stop-color="#00a62c"/></linearGradient><g fill="none" fill-rule="evenodd"><circle cx="16" cy="16" fill="url(#a)" r="16"/><path d="M25 22.58l-6.99-3.258v-7.22L25 9.623zM14.823 26L8 22.821V9.958l6.823 3.18zm10.01-16.843l-.113.04-6.71 2.381-.168.06-2.843 1.008-6.73-3.136 9.573-3.396.084-.03.177-.063.062-.021 6.73 3.136z" fill="#fff" fill-rule="nonzero"/></g></svg>

<svg width="32" height="32" viewBox="0 0 32 32" xmlns="http://www.w3.org/2000/svg">
    <g stroke="none" stroke-width="1" fill="none" fill-rule="evenodd">
        <g fill-rule="nonzero">
            <circle id="Oval" fill="#58BF00" cx="16" cy="16" r="16"></circle>
            <path d="M25,22.58 L18.01,19.322 L18.01,12.102 L25,9.623 L25,22.58 Z M14.823,26 L8,22.821 L8,9.958 L14.823,13.138 L14.823,26 Z M24.833,9.157 L24.72,9.197 L18.01,11.578 L17.842,11.638 L14.999,12.646 L8.269,9.51 L17.842,6.114 L17.926,6.084 L18.103,6.021 L18.165,6 L24.895,9.136 L24.833,9.157 Z" fill="#FFFFFF"></path>
        </g>
    </g>
</svg>
